src/status/16/fcitx-mozc-properties.svg

<svg xmlns="http://www.w3.org/2000/svg" width="16" height="16" version="1.1">
 <defs>
  <style id="current-color-scheme" type="text/css">
   .ColorScheme-Text { color:#363636; } .ColorScheme-Highlight { color:#4285f4; } .ColorScheme-NeutralText { color:#ff9800; } .ColorScheme-PositiveText { color:#4caf50; } .ColorScheme-NegativeText { color:#f44336; }
  </style>
 </defs>
 <path style="fill:currentColor" class="ColorScheme-Text" d="M 6.0019531 0 L 5.8261719 2.1074219 A 6.2848373 6.2848373 0 0 0 3.9902344 3.1699219 L 2.0742188 2.2675781 L 0.07421875 5.7304688 L 1.8125 6.9394531 A 6.2848373 6.2848373 0 0 0 1.7167969 7.9980469 A 6.2848373 6.2848373 0 0 0 1.8085938 9.0625 L 0.07421875 10.265625 L 2.0742188 13.730469 L 3.984375 12.830078 A 6.2848373 6.2848373 0 0 0 5.8261719 13.886719 L 5.9980469 16 L 9.9980469 16 L 10.173828 13.892578 A 6.2848373 6.2848373 0 0 0 12.009766 12.830078 L 13.925781 13.732422 L 15.925781 10.269531 L 14.1875 9.0605469 A 6.2848373 6.2848373 0 0 0 14.283203 8.0019531 A 6.2848373 6.2848373 0 0 0 14.191406 6.9375 L 15.925781 5.734375 L 13.925781 2.2695312 L 12.015625 3.1699219 A 6.2848373 6.2848373 0 0 0 10.173828 2.1132812 L 10.001953 0 L 6.0019531 0 z M 8 5 A 2.9999994 2.9999994 0 0 1 11 8 A 2.9999994 2.9999994 0 0 1 8 11 A 2.9999994 2.9999994 0 0 1 5 8 A 2.9999994 2.9999994 0 0 1 8 5 z"/>
</svg>

<svg xmlns="http://www.w3.org/2000/svg" width="16" height="16">
    <defs>
        <style id="current-color-scheme" type="text/css">
            .ColorScheme-Highlight{color:#a0b6cb}.ColorScheme-NeutralText{color:#f5cba3}.ColorScheme-PositiveText{color:#add49f}.ColorScheme-NegativeText{color:#ec9b97}
        </style>
    </defs>
    <path d="m6.002 0-.176 2.107A6.285 6.285 0 0 0 3.99 3.17l-1.916-.902-2 3.462 1.739 1.21a6.285 6.285 0 0 0-.096 1.058 6.285 6.285 0 0 0 .092 1.064L.074 10.267l2 3.464 1.91-.9a6.285 6.285 0 0 0 1.842 1.057L5.998 16h4l.176-2.107a6.285 6.285 0 0 0 1.836-1.063l1.916.902 2-3.462-1.739-1.21a6.285 6.285 0 0 0 .096-1.058 6.285 6.285 0 0 0-.092-1.065l1.735-1.203-2-3.464-1.91.9a6.285 6.285 0 0 0-1.842-1.057L10.002 0h-4zM8 5a3 3 0 0 1 3 3 3 3 0 0 1-3 3 3 3 0 0 1-3-3 3 3 0 0 1 3-3z" style="fill:currentColor;color:#050505;opacity:.7"/>
</svg>
